Carto/POI/SVG/game-arcade_solid_24px.svg

<svg xmlns="http://www.w3.org/2000/svg" width="24" height="24" viewBox="0 0 24 24"><rect width="24" height="24" style="fill:none"/><path d="M6,20H4V18H6ZM4,20H2v2H4Zm16-2H18v2h2Zm2,2H20v2h2Zm0-9v3H18v4H16V14H13v2h1v4H10V16h1V14H8v4H6V14H2V11H4V8H6V5H8V2h8V5h2V8h2v3ZM10,11V8H7v3Zm7-3H14v3h3V8Z"/></svg>

<svg width="24" height="24" viewBox="0 0 24 24" fill="none" xmlns="http://www.w3.org/2000/svg">
<path d="M6 20H4V18H6V20ZM4 20H2V22H4V20ZM20 18H18V20H20V18ZM22 20H20V22H22V20ZM22 11V14H18V18H16V14H13V16H14V20H10V16H11V14H8V18H6V14H2V11H4V8H6V5H8V2H16V5H18V8H20V11H22ZM10 11V8H7V11H10ZM17 8H14V11H17V8Z" fill="#0F1621"/>
</svg>
